src/assets/img/scrumIcon.svg

<svg width="65" height="60" viewBox="0 0 65 60" fill="none" xmlns="http://www.w3.org/2000/svg">
<path fill-rule="evenodd" clip-rule="evenodd" d="M63.4173 15.7639L57.7355 23.7083L52.0538 15.7639H55.1516C54.9155 9.86111 50.0394 5.13889 44.0798 5.13889C39.0509 5.13889 34.7861 8.51389 33.4386 13.1111C31.7994 12.5833 30.1046 12.25 28.382 12.0972C28.5764 11.3611 28.8265 10.625 29.1321 9.91667C29.9517 7.98611 31.1187 6.25 32.6051 4.76389C34.0915 3.27778 35.828 2.09722 37.759 1.29167C39.7594 0.430556 41.8849 0 44.0798 0C46.2747 0 48.4002 0.430556 50.4006 1.27778C52.3316 2.09722 54.0681 3.26389 55.5545 4.75C57.0409 6.23611 58.2079 7.97222 59.0275 9.90278C59.8193 11.7639 60.25 13.7361 60.2916 15.7639H63.4173Z" fill="white"/>
<path fill-rule="evenodd" clip-rule="evenodd" d="M55.4711 59.9999V56.5832H35.8835C36.0225 56.5138 36.1614 56.4582 36.3003 56.3888C38.4258 55.3749 40.3845 54.0554 42.1349 52.4443C42.3711 52.2221 42.5933 52.0138 42.8017 51.8054C43.0379 51.5693 43.2879 51.3193 43.5241 51.0554C43.8019 50.7499 44.0798 50.4304 44.3298 50.111H55.4711V46.6943L64.7787 53.3471L55.4711 59.9999Z" fill="white"/>
<path fill-rule="evenodd" clip-rule="evenodd" d="M48.2474 35.3192C48.2474 38.2776 47.6639 41.1526 46.5248 43.8609C45.5523 46.1665 44.1909 48.2776 42.4961 50.1248C42.2738 50.3609 42.0516 50.597 41.8293 50.8331C41.6209 51.0415 41.4125 51.2359 41.2042 51.4442C39.5649 52.9581 37.7312 54.1942 35.7308 55.1526C35.4529 55.2915 35.1612 55.4165 34.8695 55.5415C34.8556 55.5415 34.8556 55.5553 34.8417 55.5553C33.1746 56.2637 31.3826 56.6109 29.5627 56.6109H0.667603V50.1526H27.4929C35.6057 50.1526 42.2599 43.6665 42.3711 35.5553C42.3711 35.4859 42.3711 35.4165 42.3711 35.347C42.3711 26.4859 35.1751 19.2914 26.312 19.2914C17.449 19.2637 10.253 26.4442 10.253 35.3192H13.976L7.32182 44.6248L0.667603 35.3192H4.39063C4.39063 32.3609 4.97409 29.4859 6.11323 26.7776C7.22458 24.1665 8.79436 21.8192 10.8087 19.8053C12.823 17.7915 15.1707 16.2081 17.7824 15.1109C20.4913 13.972 23.367 13.3887 26.3259 13.3887C26.9233 13.3887 27.5067 13.4164 28.0902 13.4581C29.8128 13.597 31.4937 13.9303 33.133 14.472C33.7164 14.6664 34.286 14.8748 34.8556 15.1248C37.4672 16.2359 39.815 17.8053 41.8293 19.8192C43.8436 21.8331 45.4273 24.1803 46.5248 26.7914C47.6639 29.4859 48.2474 32.3609 48.2474 35.3192Z" fill="white"/>
</svg>

<svg width="65" height="60" fill="none" xmlns="http://www.w3.org/2000/svg"><path fill-rule="evenodd" clip-rule="evenodd" d="m63.417 15.764-5.681 7.944-5.682-7.944h3.098C54.916 9.86 50.039 5.139 44.08 5.139c-5.03 0-9.294 3.375-10.641 7.972a23.155 23.155 0 0 0-5.057-1.014c.194-.736.444-1.472.75-2.18a16.212 16.212 0 0 1 3.473-5.153 15.99 15.99 0 0 1 5.154-3.472C39.759.43 41.885 0 44.079 0a16.215 16.215 0 0 1 11.475 4.75 16.212 16.212 0 0 1 3.474 5.153 15.738 15.738 0 0 1 1.264 5.86h3.125ZM55.471 60v-3.417H35.884c.139-.07.277-.125.416-.194a23.59 23.59 0 0 0 5.835-3.945c.236-.222.458-.43.667-.639a18.742 18.742 0 0 0 1.528-1.694H55.47v-3.417l9.308 6.653L55.47 60ZM48.247 35.32c0 2.958-.583 5.833-1.722 8.54a21.773 21.773 0 0 1-4.029 6.265l-.667.708c-.208.209-.416.403-.625.611a22.12 22.12 0 0 1-5.473 3.709c-.278.139-.57.264-.861.389-.014 0-.014.013-.028.013a13.468 13.468 0 0 1-5.28 1.056H.669v-6.458h26.825c8.113 0 14.767-6.486 14.878-14.598v-.208c0-8.861-7.196-16.056-16.059-16.056-8.863-.027-16.059 7.153-16.059 16.028h3.723l-6.654 9.306-6.654-9.306H4.39c0-2.958.583-5.833 1.722-8.541a21.96 21.96 0 0 1 4.696-6.973 21.738 21.738 0 0 1 6.973-4.694 21.936 21.936 0 0 1 8.544-1.722c.597 0 1.18.027 1.764.07a21.519 21.519 0 0 1 6.766 1.666 21.965 21.965 0 0 1 6.973 4.694 21.734 21.734 0 0 1 4.696 6.972 21.806 21.806 0 0 1 1.722 8.528Z" fill="#fff"/></svg>
